X:2168
T:Brighton Camp. JC.105
M:2/4
L:1/8
Q:220
S:John Clare,Poet,Helpston. (1793-1864)
R:Misc.
O:England
A:Northamptonshire
N:
Z:P Headford
K:G
g|ecBA|BGEF|GA G/A/B/c/|dcBg|ecBA|BGEG|FADF|
G2G:|!
|:c|Bdef|gdBG|Bdef|g2(fg)|ecBA|BGEG|FADF|G2G:|]
W:Song text exists. See Deacon.


